X: 38883
T: Sunny Sunday's
R: reel
M: 4/4
K: Fmajor
|:fdcB d2cB|G4 G3g|fdcB d2cB|dc3 c3g|
fdcB d2cB|G4 G2BG|FGBc B2F2-|FGBc dBB2:|
B2GF BFGB|c2GF cFGF|d2GF cdfg|dccf dccd|
B2GF BFGB|c2GF cFGc|d2cB d2F2-|FGBc dBBc|
B2GF BFGB|c2GF cFGF|d2GF cdfg|dccB c3c|
d2cB cBG2-|GGFG Bcc2|cdfd gfdc|fdcB d3g||
"Intro / End"
F4-F3G-|G4-G3F-|FGGF Gd2c-|c4-c2 cd|
F4-F3G-|G4-G3F-|FGGF Gd2c-|c4-c2 cg||

